X:5966
T:Sharon Shannon
R:reel
C:Dougie MacDonald
D:A Miner, Dougie MacDonald, 1998
N:Bookings,Mechanicals etc.
N:..... Dougie MacDonald <dougie@cranfordpub.com>
N:More tunes and information <http://www.cranfordpub.com/dougie>
Q:150
O:England
L:1/8
M:C|
K:Edor
B,EEF G2 FE|FDFG A2 FA|BGGB ADdD|cDBD ADFD|
B,EEF G2 FE|FDFG A2 FA|BGGB AFFd|BGAF E/E/E E2||
eEEd eEeE|dBAd FGAf|eEEd eEeE|dBAF E/E/E E2|
eEEd eEeE|dBAd FGA=c|BGGB AFAd|BGAF E/E/E E2|]


